icons/chevron-left-down.svg

<?xml version="1.0" standalone="no"?><!-- Generator: Gravit.io --><svg xmlns="http://www.w3.org/2000/svg" xmlns:xlink="http://www.w3.org/1999/xlink" width="96" height="96"><path d=" M 15.787471873040289 19.68418765739124 L 15.716761194921645 75.0506486242979 L 17.272396113532054 78.72760388646796 L 20.949351375702093 80.28323880507837 L 76.31581234260878 80.2125281269597 C 77.37647251438858 80.28323880507835 78.36642200804975 79.85897473636642 79.14423946735496 79.08115727706122 C 79.92205692666016 78.30333981775603 80.34632099537208 77.31339032409485 80.27561031725344 76.25273015231502 C 80.34632099537208 75.19206998053521 79.92205692666016 74.20212048687404 79.14423946735496 73.42430302756884 C 78.36642200804975 72.64648556826364 77.37647251438858 72.22222149955171 76.31581234260877 72.29293217767037 L 23.777778500448292 72.22222149955172 L 23.707067822329606 19.68418765739124 C 23.777778500448264 18.623527485611415 23.353514431736343 17.63357799195025 22.575696972431146 16.855760532645053 C 21.79787951312595 16.077943073339856 20.807930019464777 15.653679004627932 19.747269847684947 15.724389682746576 C 18.68660967590513 15.653679004627918 17.69666018224396 16.077943073339853 16.918842722938763 16.85576053264505 C 16.141025263633566 17.633577991950254 15.71676119492163 18.623527485611426 15.787471873040289 19.68418765739124 Z " fill="#454545" stroke="none"/><mask id="_mask_voRbLmfED07MRJZpHfgHaHPHHimiOJrh"><path d=" M 15.787471873040289 19.68418765739124 L 15.716761194921645 75.0506486242979 L 17.272396113532054 78.72760388646796 L 20.949351375702093 80.28323880507837 L 76.31581234260878 80.2125281269597 C 77.37647251438858 80.28323880507835 78.36642200804975 79.85897473636642 79.14423946735496 79.08115727706122 C 79.92205692666016 78.30333981775603 80.34632099537208 77.31339032409485 80.27561031725344 76.25273015231502 C 80.34632099537208 75.19206998053521 79.92205692666016 74.20212048687404 79.14423946735496 73.42430302756884 C 78.36642200804975 72.64648556826364 77.37647251438858 72.22222149955171 76.31581234260877 72.29293217767037 L 23.777778500448292 72.22222149955172 L 23.707067822329606 19.68418765739124 C 23.777778500448264 18.623527485611415 23.353514431736343 17.63357799195025 22.575696972431146 16.855760532645053 C 21.79787951312595 16.077943073339856 20.807930019464777 15.653679004627932 19.747269847684947 15.724389682746576 C 18.68660967590513 15.653679004627918 17.69666018224396 16.077943073339853 16.918842722938763 16.85576053264505 C 16.141025263633566 17.633577991950254 15.71676119492163 18.623527485611426 15.787471873040289 19.68418765739124 Z " fill="white" stroke="none"/></mask><path d=" M 15.787471873040289 19.68418765739124 L 15.716761194921645 75.0506486242979 L 17.272396113532054 78.72760388646796 L 20.949351375702093 80.28323880507837 L 76.31581234260878 80.2125281269597 C 77.37647251438858 80.28323880507835 78.36642200804975 79.85897473636642 79.14423946735496 79.08115727706122 C 79.92205692666016 78.30333981775603 80.34632099537208 77.31339032409485 80.27561031725344 76.25273015231502 C 80.34632099537208 75.19206998053521 79.92205692666016 74.20212048687404 79.14423946735496 73.42430302756884 C 78.36642200804975 72.64648556826364 77.37647251438858 72.22222149955171 76.31581234260877 72.29293217767037 L 23.777778500448292 72.22222149955172 L 23.707067822329606 19.68418765739124 C 23.777778500448264 18.623527485611415 23.353514431736343 17.63357799195025 22.575696972431146 16.855760532645053 C 21.79787951312595 16.077943073339856 20.807930019464777 15.653679004627932 19.747269847684947 15.724389682746576 C 18.68660967590513 15.653679004627918 17.69666018224396 16.077943073339853 16.918842722938763 16.85576053264505 C 16.141025263633566 17.633577991950254 15.71676119492163 18.623527485611426 15.787471873040289 19.68418765739124 Z " fill="none" stroke="none" stroke-width="16" mask="url(#_mask_voRbLmfED07MRJZpHfgHaHPHHimiOJrh)"/></svg>

<svg xmlns="http://www.w3.org/2000/svg" width="96" height="96"><path d="M15.787 19.684l-.07 55.367 1.555 3.677 3.677 1.555 55.367-.07c1.06.07 2.05-.354 2.828-1.132.778-.778 1.202-1.768 1.132-2.828.07-1.06-.354-2.05-1.132-2.829-.778-.778-1.768-1.202-2.828-1.131l-52.538-.07-.07-52.539c.07-1.06-.354-2.05-1.132-2.828-.778-.778-1.768-1.202-2.829-1.132-1.06-.07-2.05.354-2.828 1.132-.778.778-1.202 1.768-1.132 2.828z" fill="#454545"/></svg>
